X: 20591
T: Port Gordon
%R: air, march
B: James Oswald "The Caledonian Pocket Companion" v.2 p.59
Z: 2019 John Chambers <jc:trillian.mit.edu>
N: In bar 4 there are D-note appoggiaturas on both C notes.
N: The 2nd strain has 17 bars.
N: Several strains are missing a beat in their final bars; fixed with added rests.
N: Oddly, 2 of these bars have fermatas over the dots on the final notes.
M: C
L: 1/8
K: F	% or Dm
|: "_Slow"\
F3G A2(GF) | G2A2 {d}c2(AG) | F4 (FG)(AG) | {G2}F4 {d2}[c4C4] |\
F3G A2(GF) | (GF)(GA) d2(cA) | G4 G2(F/G/)A | {A2}G4 {F2}D4 |
F3G A2GF | G2A2 c2dc | A4 TA3G | {G2}A4 f3c |\
A4 TG2F2 | [e2E2][d2D2] [e2E2][c2C2] | [d3D3][cC] [AA,][GG,][AA,][cC] | [d6D6] z2 :|
|:\
f3g (fg)a2 | F3G F2[c2C2] | f3g (fg)a2 | G3A G2(fg) |\
a2a2 ba(gf)  | g2g2 (ag)(fe) | f2f2 (gf)(ef) | (de)(dc) A4 |
Td3c d2f2 | (df)(dc) A4 | c2A2 c2(fd) | (cd)(cA) G4 |\
A2A2 (BA)(GF) | G2G2 (AG)(FE) | F3G TE3D | [d3D3][cC] [AA,][GG,][AA,][cC] | [d6D6] Hz2 :|
|:\
F4 c2(A/G/)F | G4 d2(c/A/)G | A3f (dc)(AG) | F2[dD][cC] [c4C4] |\
D2FG A2(GF) | (GF)(GA) (fd)(cA) | G3A d2(cA) | (GA)(GF) D4 |
F2(cA) A2(FA) | G3A (cA)(dc) | TA2(GF) TG2(FG) | A4 (f3g/a/) |\
A3d (cA)(GF) | TG3F (GF)(GA) | F2[dD][cC] [AA,][GG,][AA,][cC] | [d6D6] Hz2 :|
|:\
f3g (ag)(fd) | (cA)(GA) F2[c2C2] | f3g (ag)(fd) | (cd)(cA) G2(f>g) |\
a3g f(fg)a | Tg3f d2(ag) | f3d (cd)(fe) | d2(dc) A4 |
d2(cd) f3e | (dc)(dc) A4 | (cA)(cd) f2(dc) | d2(cA) {A2}G4 |\
[f2F2][f2F2] [gG][fF][eE][dD] | [e2E2][e2E2] [fF][eE][dD][cC] |\
[dD][fF][dD][cC] [AA,][GG,][AA,][cC] | [d4D4] [d2D2]z2 :|


